localPackages/DesignSystem/Sources/DesignSystem/Resources/Assets.xcassets/IconSet/ic-pen.imageset/ic-pen.svg

<svg width="24" height="24" viewBox="0 0 24 24" fill="none" xmlns="http://www.w3.org/2000/svg">
<g id="ic-pen">
<path id="Icon" fill-rule="evenodd" clip-rule="evenodd" d="M20.2348 5.96429L18.0289 3.76782C18.0214 3.76035 18.0153 3.75686 18.0097 3.75461C18.0031 3.75195 17.9945 3.75 17.9844 3.75C17.9744 3.75 17.9657 3.75195 17.9591 3.75461C17.9535 3.75686 17.9474 3.76035 17.9399 3.76782L4.81541 16.8367C4.58367 17.0674 4.42862 17.3621 4.36976 17.6812L3.93306 20.049L6.26504 19.5695C6.576 19.5056 6.8605 19.3525 7.08376 19.1302L20.2348 6.03495C20.2551 6.01471 20.2551 5.98454 20.2348 5.96429ZM19.0873 2.70491C18.4782 2.09836 17.4906 2.09836 16.8815 2.70491L3.75701 15.7738C3.30967 16.2192 3.00891 16.7896 2.89464 17.4092L2.26321 20.8327C2.16326 21.3746 2.64607 21.8449 3.18795 21.7335L6.56712 21.0388C7.1638 20.9161 7.71135 20.6221 8.14216 20.1931L21.2932 7.09786C21.9023 6.49132 21.9023 5.50793 21.2932 4.90138L19.0873 2.70491Z" fill="#0F0F0F"/>
</g>
</svg>

<svg xmlns="http://www.w3.org/2000/svg" width="24" height="24" viewBox="0 0 24 24">
  <g class="ic-pen">
    <path fill-rule="evenodd" d="m20.235 5.964-2.206-2.196a.056.056 0 0 0-.02-.013.068.068 0 0 0-.025-.005.068.068 0 0 0-.025.005.056.056 0 0 0-.02.013L4.816 16.837c-.231.23-.386.525-.445.844l-.437 2.368 2.332-.48a1.61 1.61 0 0 0 .819-.439l13.15-13.095a.047.047 0 0 0 0-.07Zm-1.148-3.26a1.564 1.564 0 0 0-2.206 0L3.757 15.775a3.102 3.102 0 0 0-.862 1.635l-.632 3.424a.778.778 0 0 0 .925.9l3.38-.694a3.124 3.124 0 0 0 1.574-.846L21.293 7.098c.61-.607.61-1.59 0-2.197l-2.206-2.196Z" class="Icon"/>
  </g>
</svg>
